flaticon/gastronomy/glass-5.svg

<svg xmlns="http://www.w3.org/2000/svg" width="32" height="32" viewBox="0 0 24 24">
    <path d="M 22.273438 1.882812 C 22.277344 1.871094 22.277344 1.855469 22.277344 1.839844 C 22.28125 1.800781 22.285156 1.757812 22.285156 1.714844 C 22.285156 1.09375 21.738281 0.667969 18.9375 0.339844 C 17.078125 0.121094 14.617188 0 12 0 C 9.382812 0 6.921875 0.121094 5.0625 0.339844 C 2.261719 0.667969 1.714844 1.09375 1.714844 1.714844 C 1.714844 1.757812 1.71875 1.796875 1.722656 1.839844 C 1.722656 1.851562 1.722656 1.867188 1.726562 1.882812 L 2.445312 10.519531 C 2.445312 10.523438 2.445312 10.523438 2.445312 10.527344 L 3.210938 19.699219 C 3.210938 19.703125 3.214844 19.707031 3.214844 19.710938 L 3.429688 22.285156 C 3.429688 22.890625 3.953125 23.308594 6.625 23.660156 C 8.234375 23.871094 10.242188 24 12 24 C 13.757812 24 15.765625 23.871094 17.375 23.660156 C 20.046875 23.308594 20.570312 22.886719 20.570312 22.332031 L 21.554688 10.492188 C 21.558594 10.464844 21.5625 10.433594 21.5625 10.40625 Z M 3.824219 13.3125 L 3.660156 11.347656 C 3.925781 11.417969 4.25 11.484375 4.632812 11.546875 C 4.65625 11.550781 4.683594 11.554688 4.707031 11.558594 C 4.757812 11.566406 4.808594 11.578125 4.859375 11.585938 C 4.695312 12.148438 4.816406 12.78125 5.242188 13.242188 L 7.074219 15.199219 C 7.386719 15.535156 7.8125 15.726562 8.269531 15.742188 C 8.289062 15.742188 8.308594 15.742188 8.328125 15.742188 C 8.335938 15.742188 8.339844 15.742188 8.34375 15.742188 C 8.371094 16.132812 8.523438 16.5 8.792969 16.789062 L 10.625 18.75 C 10.960938 19.109375 11.417969 19.292969 11.878906 19.292969 C 12.296875 19.292969 12.714844 19.140625 13.046875 18.832031 L 15.007812 17 C 15.339844 16.6875 15.53125 16.265625 15.546875 15.804688 C 15.5625 15.347656 15.402344 14.910156 15.089844 14.578125 L 14.8125 14.285156 C 15.117188 14.21875 15.394531 14.078125 15.625 13.863281 L 17.585938 12.03125 C 17.679688 11.945312 17.757812 11.851562 17.824219 11.75 C 18.980469 11.636719 19.785156 11.503906 20.335938 11.355469 L 19.683594 19.21875 C 18.175781 19.621094 14.890625 19.933594 12 19.933594 C 9.109375 19.933594 5.824219 19.621094 4.316406 19.21875 Z M 21.046875 2.863281 L 20.5 9.402344 C 19.832031 9.203125 18.746094 9.027344 17 8.894531 L 15.835938 7.648438 C 15.191406 6.960938 14.105469 6.921875 13.414062 7.566406 L 12.183594 8.71875 L 12.046875 8.714844 C 11.121094 8.714844 10.207031 8.734375 9.320312 8.769531 C 8.738281 8.429688 8.003906 8.457031 7.445312 8.863281 C 5.421875 9.003906 4.214844 9.199219 3.5 9.414062 L 2.953125 2.863281 C 4.285156 3.242188 6.933594 3.429688 12 3.429688 C 17.066406 3.429688 19.714844 3.242188 21.046875 2.863281 Z M 5.3125 10.492188 C 5.296875 10.492188 5.285156 10.492188 5.269531 10.488281 C 4.945312 10.445312 4.675781 10.398438 4.457031 10.355469 C 4.851562 10.28125 5.378906 10.203125 6.0625 10.128906 L 5.777344 10.394531 L 5.628906 10.535156 C 5.625 10.535156 5.625 10.535156 5.625 10.535156 C 5.515625 10.519531 5.410156 10.507812 5.3125 10.492188 Z M 8.066406 9.820312 C 8.175781 9.71875 8.316406 9.667969 8.457031 9.667969 C 8.609375 9.667969 8.761719 9.730469 8.875 9.847656 L 9.785156 10.820312 C 8.804688 10.792969 7.921875 10.742188 7.144531 10.683594 L 7.457031 10.390625 Z M 12.796875 9.707031 L 14.195312 8.402344 C 14.304688 8.300781 14.445312 8.246094 14.585938 8.246094 C 14.738281 8.246094 14.890625 8.308594 15 8.429688 L 16.832031 10.390625 C 16.878906 10.4375 16.910156 10.496094 16.9375 10.554688 C 16.945312 10.578125 16.953125 10.601562 16.957031 10.625 C 16.964844 10.644531 16.964844 10.664062 16.96875 10.683594 C 15.667969 10.785156 14.039062 10.855469 12.09375 10.855469 C 12.09375 10.851562 12.089844 10.851562 12.089844 10.847656 C 12.085938 10.839844 12.085938 10.835938 12.085938 10.832031 C 12.015625 10.625 12.066406 10.390625 12.234375 10.234375 Z M 18 10.128906 C 18.671875 10.203125 19.1875 10.28125 19.574219 10.359375 C 19.222656 10.425781 18.75 10.5 18.113281 10.570312 C 18.113281 10.566406 18.113281 10.566406 18.113281 10.5625 C 18.09375 10.421875 18.058594 10.28125 18.003906 10.144531 C 18.003906 10.140625 18.003906 10.136719 18 10.128906 Z M 11.082031 9.914062 C 11.0625 9.949219 11.050781 9.984375 11.035156 10.019531 C 11.011719 10.078125 10.992188 10.140625 10.976562 10.203125 C 10.964844 10.242188 10.957031 10.28125 10.949219 10.320312 C 10.945312 10.339844 10.9375 10.359375 10.933594 10.378906 L 10.464844 9.875 C 10.675781 9.871094 10.886719 9.867188 11.101562 9.863281 C 11.09375 9.882812 11.089844 9.898438 11.082031 9.914062 Z M 6.050781 11.734375 C 7.710938 11.902344 9.589844 11.964844 10.816406 11.988281 C 10.898438 12.199219 10.855469 12.449219 10.679688 12.617188 L 8.71875 14.449219 C 8.609375 14.550781 8.460938 14.601562 8.308594 14.601562 C 8.15625 14.59375 8.015625 14.53125 7.910156 14.421875 L 6.078125 12.460938 C 5.886719 12.253906 5.886719 11.949219 6.050781 11.734375 Z M 9.65625 15.203125 L 11.613281 13.371094 C 11.71875 13.269531 11.859375 13.21875 12.003906 13.21875 C 12.011719 13.21875 12.019531 13.21875 12.023438 13.21875 C 12.179688 13.222656 12.320312 13.285156 12.421875 13.398438 L 14.253906 15.355469 C 14.46875 15.585938 14.457031 15.949219 14.226562 16.164062 L 12.265625 17.996094 C 12.15625 18.101562 12.007812 18.15625 11.859375 18.148438 C 11.703125 18.144531 11.5625 18.078125 11.460938 17.96875 L 9.628906 16.007812 C 9.414062 15.777344 9.425781 15.417969 9.65625 15.203125 Z M 14.039062 13 L 13.09375 11.992188 C 13.863281 11.976562 14.9375 11.949219 16.070312 11.882812 L 14.847656 13.027344 C 14.617188 13.242188 14.253906 13.230469 14.039062 13 Z M 12 1.144531 C 16.007812 1.144531 18.96875 1.421875 20.382812 1.714844 C 18.96875 2.003906 16.007812 2.285156 12 2.285156 C 7.992188 2.285156 5.03125 2.003906 3.617188 1.714844 C 5.03125 1.421875 7.992188 1.144531 12 1.144531 Z M 12 22.855469 C 8.761719 22.855469 5.308594 22.425781 4.554688 22.058594 L 4.417969 20.417969 C 6.289062 20.835938 9.523438 21.078125 12 21.078125 C 14.476562 21.078125 17.710938 20.832031 19.585938 20.417969 L 19.449219 22.058594 C 18.699219 22.425781 15.238281 22.855469 12 22.855469 Z M 12 22.855469"/>
</svg>

<svg xmlns="http://www.w3.org/2000/svg" width="32" height="32" viewBox="0 0 24 24">
    <path d="M22.273 1.883c.004-.012.004-.028.004-.043.004-.04.008-.082.008-.125 0-.621-.547-1.047-3.348-1.375C17.078.12 14.617 0 12 0S6.922.121 5.062.34c-2.8.328-3.347.754-3.347 1.375 0 .043.004.082.008.125 0 .012 0 .027.004.043l.718 8.637v.007l.766 9.172c0 .004.004.008.004.012l.215 2.574c0 .606.523 1.024 3.195 1.375 1.61.211 3.617.34 5.375.34s3.766-.129 5.375-.34c2.672-.351 3.195-.773 3.195-1.328l.985-11.84a.639.639 0 0 0 .008-.086zM3.824 13.313l-.164-1.965c.266.07.59.136.973.199l.074.012c.05.007.102.02.152.027a1.724 1.724 0 0 0 .383 1.656L7.074 15.2a1.7 1.7 0 0 0 1.196.543H8.344c.027.39.18.758.449 1.047l1.832 1.961a1.71 1.71 0 0 0 2.422.082L15.007 17c.333-.313.524-.734.54-1.195a1.692 1.692 0 0 0-.457-1.227l-.277-.293c.304-.066.582-.207.812-.422l1.96-1.832c.095-.086.173-.18.24-.281 1.155-.113 1.96-.246 2.51-.395l-.651 7.864c-1.508.402-4.793.715-7.684.715-2.89 0-6.176-.313-7.684-.715zm17.223-10.45l-.547 6.54c-.668-.2-1.754-.376-3.5-.508l-1.164-1.247a1.718 1.718 0 0 0-2.422-.082l-1.23 1.153-.137-.004c-.926 0-1.84.02-2.727.055a1.714 1.714 0 0 0-1.875.093c-2.023.14-3.23.336-3.945.551l-.547-6.55c1.332.378 3.98.566 9.047.566 5.066 0 7.715-.188 9.047-.567zm-15.735 7.63c-.015 0-.027 0-.042-.005-.325-.043-.594-.09-.813-.133.395-.074.922-.152 1.606-.226l-.286.266-.148.14h-.004c-.11-.015-.215-.027-.313-.043zm2.754-.673a.573.573 0 0 1 .809.028l.91.972a55.698 55.698 0 0 1-2.64-.136l.312-.293zm4.73-.113l1.4-1.305a.577.577 0 0 1 .39-.156c.152 0 .305.063.414.184l1.832 1.96a.561.561 0 0 1 .105.165c.008.023.016.047.02.07.008.02.008.04.012.059-1.301.101-2.93.171-4.875.171 0-.003-.004-.003-.004-.007-.004-.008-.004-.012-.004-.016a.565.565 0 0 1 .148-.598zm5.204.422c.672.074 1.188.152 1.574.23-.351.067-.824.141-1.46.211v-.008a1.784 1.784 0 0 0-.11-.417c0-.004 0-.008-.004-.016zm-6.918-.215c-.02.035-.031.07-.047.106a1.436 1.436 0 0 0-.058.183 1.27 1.27 0 0 0-.028.117c-.004.02-.011.04-.015.059l-.47-.504.638-.012c-.008.02-.012.035-.02.051zm-5.031 1.82c1.66.168 3.539.23 4.765.254.082.211.04.461-.136.63l-1.961 1.831a.6.6 0 0 1-.41.153.59.59 0 0 1-.399-.18L6.078 12.46a.562.562 0 0 1-.027-.727zm3.605 3.47l1.957-1.833a.559.559 0 0 1 .39-.152h.02a.544.544 0 0 1 .399.18l1.832 1.956a.573.573 0 0 1-.027.81l-1.961 1.831a.546.546 0 0 1-.407.152.559.559 0 0 1-.398-.18l-1.832-1.96a.569.569 0 0 1 .027-.805zM14.04 13l-.945-1.008c.77-.015 1.844-.043 2.976-.11l-1.222 1.145a.573.573 0 0 1-.809-.027zM12 1.145c4.008 0 6.969.277 8.383.57-1.414.289-4.375.57-8.383.57-4.008 0-6.969-.281-8.383-.57 1.414-.293 4.375-.57 8.383-.57zm0 21.71c-3.238 0-6.691-.43-7.445-.796l-.137-1.641c1.871.418 5.105.66 7.582.66 2.477 0 5.71-.246 7.586-.66l-.137 1.64c-.75.368-4.21.797-7.449.797zm0 0"/>
</svg>
